X: 21004
T: Julia Delaney's
R: reel
M: 4/4
K: Dminor
|:dcAG F2 DF|E2 CE FEDc|dcAG F2 DF|Addc defe|
dcAG F2 DF|E2 CE FE Dc|dcAG F2 DF|1 Addc d2 {g}fe:|2 Addc d2 de||
|:f2 fe fagf|(3edc gc acgc|fede fagf|edcA d2 de|
f2 fe fagf|(3edc gc acgc|fedf edcG|1 Addc d2 de:|2 Addc d4||

